X:1
T:Almost Persuaded
T:Almost Persuaded
T:Philip Paul Bliss
T:Philip Paul Bliss, 1871
T:Public Domain Courtesy of the Cyber Hymnal™
C:Philip Paul Bliss
Z:Public Domain
Z:Courtesy of the Cyber Hymnal™
%%score ( 1 2 ) ( 3 4 )
L:1/8
Q:1/4=110
M:6/8
K:G
V:1 treble 
V:2 treble 
V:3 bass 
V:4 bass 
V:1
 [DB]3 [Ec]2 [Ec] | [DB]3 [B,G]3 | [EG]3 [FA]2 [FA] | [GB]6 | [DB]3 [Ec]2 [Ec] | [DB]3 [B,G]3 | %6
w: 1.~“Al- most per-|suad- ed”|now to be-|lieve;|“Al- most per-|suad- ed”|
w: 2.~“Al- most per-|suad- ed,”|come, come to-|day;|“Al- most per-|suad- ed,”|
w: 3.~“Al- most per-|suad- ed,”|har- vest is|past!|“Al- most per-|suad- ed,”|
 [DA]3 [DB]2 [CA] | [B,G]6 | [Ec]3 [Ec]2 [Ec] | [Ec]2 [DB] [DB]3 | [Fd]3 [FA]2 [Ac] | %11
w: Christ to re-|ceive;|Seems now some|soul to say,|“Go, Spir- it,|
w: turn not a-|way;|Je- sus in-|vites you here,|An- gels are|
w: doom comes at|last!|“Al- most” can-|not a- vail;|“Al- most” is|
 [Ac]2 [GB] [GB]3 | [B,G]3 [CG]2 [DG] | [EG]2 [EA] [DB]3 | B3 [FB]2 [FA] | G6 |] %16
w: go Thy way,|Some more con-|ven- ient day|On Thee I’ll|call.”|
w: lin- gering near|Prayers rise from|hearts so dear;|O wand- ’rer,|come!|
w: but to fail!|Sad, sad, that|bit- ter wail—|“Al- most,” but|lost!|
V:2
 x6 | x6 | x6 | x6 | x6 | x6 | x6 | x6 | x6 | x6 | x6 | x6 | x6 | x6 | (D2 G) x3 | G6 |] %16
V:3
 G,3 G,2 G, | G,3 G,3 | [E,B,]3 [D,D]2 [D,D] | [G,D]6 | G,3 G,2 G, | G,3 G,3 | %6
 [D,F,]3 [D,G,]2 [D,F,] | [G,,G,]6 | [C,G,]3 [C,G,]2 [E,G,] | G,2 G, G,3 | [D,A,]3 [D,D]2 [F,D] | %11
 [G,D]2 [G,D] [G,D]3 | [G,,G,]3 [A,,G,]2 [B,,G,] | [C,G,]2 [C,G,] [G,,G,]3 | %14
 (G,2 B,) [D,D]2 [D,C] | [G,,B,]6 |] %16
V:4
 G,3 G,2 G, | G,3 G,3 | x6 | x6 | G,3 G,2 G, | G,3 G,3 | x6 | x6 | x6 | G,2 G, G,3 | x6 | x6 | x6 | %13
 x6 | D,3 x3 | x6 |] %16

